X:1
T:Title
L:1/8
Q:1/4=140
M:6/8
K:C
V:1 treble nm="Grand Piano"
V:1
 c2 B B2 A | c2 B B2 A | c2 B B3 | F6 | B2 A A2 G | B2 A A2 G | B3 G2 A | F3 E3 | E2 F G3- | %9
w: ????~???? * * *|||||||||
 G3 F3 | F2 G A3- | A3 G3 | A2 B c2 c | c2 c c2 B | A2 B c3 | c6 | c2 B B2 A | c2 B B2 A | %18
w: |||||||||
 c2 B B3 | F6 | B2 A A2 G | B2 A A2 G | B3 G2 A | F3 E3 | E2 F G3- | G3 F3 | F2 G A3- | A3 G3 | %28
w: ||||||||||
 A2 B c2 c | c2 c c2 B | A2 B c3 | c6 |] %32
w: ||||

